app/assets/img/ic-domestic-violence.svg

<svg height="250" viewBox="0 0 250 250" width="250" xmlns="http://www.w3.org/2000/svg"><g transform="translate(22 15)"><path d="m166.330851 107.081633-1.571277-6.959184 2.020213-.6734694c1.122341-.4489796 1.795745-1.122449 2.244681-2.0204082s.448936-2.0204081.224468-3.1428571l-5.387234-14.367347h.224468c.897873-.4489795 1.795745-1.3469387 2.244681-2.2448979.448936-1.122449.224468-2.244898-.224468-3.1428572l-8.529787-16.1632653c-.448936-.8979591-1.346809-1.5714285-2.469149-2.0204081-1.122341-.2244898-2.244681-.2244898-3.142553.4489796l-.448937.2244898-2.469148-4.9387755c-.224469-.6734694-.897873-1.3469388-1.571277-1.5714286l-9.652128-5.8367347c-1.346808-.8979592-3.142553-.6734694-4.489361.2244898l-5.387234 4.2653061-.224469-.2244898c-.673404-.8979592-1.571276-1.5714286-2.693617-1.7959184l-11.223404-2.2448979c-.673404-.2244898-1.571276 0-2.244681.2244898l-17.0595742 6.9591837c-.6734042.2244897-1.3468085.8979591-1.7957447 1.5714285l-17.2840425 28.5102041c-.4489362.6734694-.4489362 1.3469388-.6734043 2.0204082 0 3.8163265-.224468 13.4693877-.4489361 17.5102045l-5.8361702 6.734693c-.2244681 0-.6734043 0-.8978724 0h-8.9787234c-1.1223404 0-2.2446808.44898-2.9180851 1.346939l-4.7138298 5.387755c-.4489362-.448979-1.1223404-.897959-1.7957447-.897959-1.1223404-.22449-2.2446808 0-3.1425532.67347l-13.243617 9.428571c-1.3468085.897959-2.0202127 2.693877-1.5712766 4.265306l.4489362 1.571429-8.5297872 3.142857c-1.1223405.448979-1.7957447 1.122449-2.2446809 2.244898l-2.9180851 7.408163c-.4489362 1.346939-.4489362 2.693878.4489362 3.816327l2.2446808 3.142857c-.2244681.224489-.6734042.673469-.8978723.897959l-6.9585106 12.122449c-.8978724 1.571428-.6734043 3.367347.4489361 4.714286l-11.22340423 11.224489c-1.5712766 1.571429-1.5712766 4.040817 0 5.612245.67340425.67347 1.79574468 1.122449 2.69361702 1.122449s2.02021276-.448979 2.69361702-1.122449l11.44787229-11.22449 14.1414894 13.020409c.6734043.673469 1.7957447 1.122449 2.693617 1.122449.4489362 0 1.1223405-.22449 1.5712766-.44898l10.9989362-4.938776c.6734043-.224489 1.1223404-.673469 1.5712766-1.346938l1.3468085.897959c.6734043.448979 1.3468085.673469 2.0202128.673469.6734042 0 1.1223404-.22449 1.7957447-.448979l5.6117021-2.918368c.8978723-.448979 1.5712766-1.122449 1.7957447-2.020408l2.4691489-5.836735c.2244681-.448979.2244681-.897959.2244681-1.571428l10.1010638-7.857143c.6734043-.44898 1.1223404-1.122449 1.3468085-1.795918l6.0606383-3.367347c1.5712766-.897959 2.469149-2.918368 1.7957447-4.714286l2.693617.673469v4.714286l-42.8734042 50.285714c-1.3468085 1.571429-1.1223405 4.040817.4489361 5.612245.6734043.67347 1.5712766.89796 2.469149.89796 1.1223404 0 2.2446808-.44898 2.9180851-1.346939l4.7138298-5.612245 1.3468085 1.795918c.4489361.67347.8978723.897959 1.5712766 1.346939l6.0606383 2.469388.2244681 2.020408c.224468 2.020408 2.0202127 3.367347 3.8159574 3.367347h.6734043c2.2446808-.22449 3.5914893-2.244898 3.3670212-4.489796l-.6734042-4.265306c-.2244681-1.346939-1.1223404-2.469388-2.469149-3.142857l-7.1829787-2.918368-1.7957447-2.244898 13.019149-15.265306 4.4893617 14.142857c.6734042 2.020409 2.9180851 3.142858 4.9382978 2.469388 2.0202128-.673469 3.1425532-2.918367 2.469149-4.938775l-6.0606383-18.632653 15.2638298-17.959184c.2244681-.22449.2244681-.44898.4489361-.67347 0 0 0-.224489.2244681-.224489 0-.22449.2244681-.22449.2244681-.44898v-.22449c0-.224489 0-.224489 0-.448979v-.22449-.22449-9.204082c0-1.795918-1.3468085-3.367346-3.1425532-3.816326l-15.0393617-3.367347v-6.061224l17.9574468-7.857143 17.9574472 12.122449 4.489361 21.55102-10.998936 30.306123c-.448936.897959-.224468 2.020408 0 2.918367l8.754255 20.877551c.673405 1.571428 2.020213 2.469388 3.59149 2.469388.448936 0 1.12234 0 1.571276-.22449 2.020213-.897959 2.918086-3.142857 2.020213-5.163265l-8.080851-19.530613 10.774468-29.857143c.224468-.673469.224468-1.346938.224468-2.244898l-4.264893-19.979591 12.794681-1.795919c.897872-.22449 1.571276-.448979 2.24468-1.122449l17.059575-16.163265 5.162766-1.346939c.897872-.22449 1.571276-.673469 2.020213-1.346939 0 0 0-.224489.224468-.224489 0 0 .224468-.22449.224468-.22449l4.938298-8.530612c1.346808-1.346939 1.346808-2.469388 1.12234-3.367347zm-13.692553-41.5306126 4.489362 8.755102-15.937234 6.9591837c.673404-.6734694 1.12234-1.7959183.897872-2.9183673l-.448936-6.7346939zm-16.161702-12.7959184 6.285106 3.8163266 1.571277 3.3673469-6.734043 3.5918367-4.938298-7.8571428zm-99.439362 125.714286-15.4882978-14.367347 4.2648936-7.632653 11.2234042 15.040816c.2244681.44898.6734043.673469 1.1223405.897959l4.9382978 3.142857zm21.1-10.77551-1.7957446 4.489795-2.2446809 1.122449-10.9989362-6.959183-16.8351063-22.67347 1.5712766-3.591836 6.2851063-2.244898 1.3468085 4.489796c.2244681.673469.4489362 1.122449.8978724 1.571428l21.7734042 23.795919c0-.22449 0 0 0 0zm9.4276596-10.102041-4.4893617 3.591836-20.2021276-22-2.9180852-10.10204 7.4074469-5.387755 20.4265957 33.224489s-.2244681.44898-.2244681.67347zm4.2648936-28.285715c-1.3468085.67347-2.4691489 2.020409-2.4691489 3.591837v11.22449l-13.9170213-22.44898 4.9382979-5.612245h4.7138298zm6.2851064 20.653062-3.8159574 2.244898-2.2446809-3.591837c.2244681 0 .2244681.22449.4489362.22449zm53.8723404-18.632653-14.365957 2.020408-19.7531919-13.469388c-1.1223404-.673469-2.4691489-.897959-3.8159574-.44898l-14.8148937 6.510205-5.8361702-11.22449 7.6319149-8.979592c.4489362-.67347.8978724-1.346939.8978724-2.020408.4489361-3.367347.4489361-14.591837.6734042-18.4081636l16.1617021-26.4897959 14.8148936-6.0612245 8.978723 1.5714286 11.447873 17.9591837.224468 3.5918367-8.080851 3.367347-9.42766-7.6326531c-1.571276-1.122449-3.591489-1.122449-5.162766.2244898-1.346808 1.3469388-1.795744 3.3673469-.673404 5.1632653l1.795745 2.6938776-.897873 8.9795918-5.387234 8.3061224c-1.12234 1.7959184-.673404 4.2653062 1.122341 5.3877552 1.795744 1.122449 4.264893.673469 5.387234-1.122449l1.795744-2.6938776c.448937.4489796.673405.6734694 1.346809.8979592.448936.2244898.897872.2244898 1.346809.2244898l5.162765 10.9999996c.673405 1.346939 2.020213 2.244898 3.59149 2.244898.448936 0 .897872 0 1.346808-.224489l2.020213-.67347 3.142553 9.428572c.673405 1.795918 2.469149 2.918367 4.489362 2.693877l3.815957-.673469zm-5.611702-43.7755106-6.509575 2.9183674-.224468-1.122449.448937-4.9387755 2.918085 2.4693877c.897872.6734694 2.020212 1.122449 3.367021.6734694zm28.731915 25.3673466-16.610638 2.918368-1.571277-4.489796 20.426596-8.530612.897872 4.489795zm-27.160638-8.755102-2.469149-5.3877548 31.65-14.1428571 3.367021 8.5306122z"/><path d="m207.632979 83.0612245-20.202128-11.2244898 14.590426-27.8367347c.673404-1.3469388.673404-2.9183673-.224468-4.2653061-.897873-1.3469388-2.469149-1.7959184-3.815958-1.5714286l-29.629787 4.2653061 4.71383-35.69387752c.224468-1.79591837-.673405-3.36734694-2.244681-4.04081633-1.571277-.89795918-3.367022-.44897959-4.71383.67346939l-24.242553 22.67346936-15.26383-20.6530612c-.897872-1.34693877-2.693617-1.79591837-4.264894-1.57142857-1.571276.44897959-2.693617 1.57142857-3.142553 3.36734694l-4.489362 27.61224493c-.448936 2.2448979 1.122341 4.2653061 3.367022 4.7142857s4.264893-1.122449 4.71383-3.367347l2.918085-18.1836734 12.345744 16.6122449c.673405.8979592 1.795745 1.5714285 2.918085 1.5714285 1.122341 0 2.244681-.2244898 3.142554-1.1224489l19.304255-18.1836735-4.040426 29.6326531c-.224468 1.3469387.224469 2.4693877 1.122341 3.3673469s2.244681 1.3469388 3.367021 1.122449l27.160638-3.8163266-12.79468 24.244898c-1.122341 2.0204082-.224469 4.2653061 1.571276 5.3877551l17.732979 9.877551-19.528724 12.122449c-1.571276.8979592-2.24468 2.9183678-1.571276 4.7142858l7.856383 21.55102-17.284043-3.816326c-2.244681-.44898-4.264893.897959-4.938298 2.918367-.448936 2.244898.897873 4.265306 2.918086 4.938776l24.242553 5.836734h.897872c1.122341 0 2.244681-.448979 2.918085-1.346938.897873-1.122449 1.346809-2.693878.897873-4.040817l-9.203192-25.591836 22.671277-13.9183678c1.12234-.6734694 2.020212-2.0204082 2.020212-3.5918368.224468-1.3469387-.673404-2.6938775-1.795744-3.3673469z"/></g></svg>

<svg xmlns="http://www.w3.org/2000/svg" width="250" height="250" viewBox="0 0 250 250">
  <g fill="#000000" transform="translate(22 15)">
    <path d="M166.330851,107.081633 L164.759574,100.122449 L166.779787,99.4489796 C167.902128,99 168.575532,98.3265306 169.024468,97.4285714 C169.473404,96.5306122 169.473404,95.4081633 169.248936,94.2857143 L163.861702,79.9183673 L164.08617,79.9183673 C164.984043,79.4693878 165.881915,78.5714286 166.330851,77.6734694 C166.779787,76.5510204 166.555319,75.4285714 166.106383,74.5306122 L157.576596,58.3673469 C157.12766,57.4693878 156.229787,56.7959184 155.107447,56.3469388 C153.985106,56.122449 152.862766,56.122449 151.964894,56.7959184 L151.515957,57.0204082 L149.046809,52.0816327 C148.82234,51.4081633 148.148936,50.7346939 147.475532,50.5102041 L137.823404,44.6734694 C136.476596,43.7755102 134.680851,44 133.334043,44.8979592 L127.946809,49.1632653 L127.72234,48.9387755 C127.048936,48.0408163 126.151064,47.3673469 125.028723,47.1428571 L113.805319,44.8979592 C113.131915,44.6734694 112.234043,44.8979592 111.560638,45.122449 L94.5010638,52.0816327 C93.8276596,52.3061224 93.1542553,52.9795918 92.7053191,53.6530612 L75.4212766,82.1632653 C74.9723404,82.8367347 74.9723404,83.5102041 74.7478723,84.1836735 C74.7478723,88 74.5234043,97.6530612 74.2989362,101.693878 L68.462766,108.428571 C68.2382979,108.428571 67.7893617,108.428571 67.5648936,108.428571 C67.5648936,108.428571 67.5648936,108.428571 67.5648936,108.428571 L58.5861702,108.428571 C57.4638298,108.428571 56.3414894,108.877551 55.6680851,109.77551 L50.9542553,115.163265 C50.5053191,114.714286 49.8319149,114.265306 49.1585106,114.265306 C48.0361702,114.040816 46.9138298,114.265306 46.0159574,114.938776 L32.7723404,124.367347 C31.4255319,125.265306 30.7521277,127.061224 31.2010638,128.632653 L31.65,130.204082 L23.1202128,133.346939 C21.9978723,133.795918 21.3244681,134.469388 20.8755319,135.591837 L17.9574468,143 C17.5085106,144.346939 17.5085106,145.693878 18.406383,146.816327 L20.6510638,149.959184 C20.4265957,150.183673 19.9776596,150.632653 19.7531915,150.857143 L12.7946809,162.979592 C11.8968085,164.55102 12.1212766,166.346939 13.243617,167.693878 L2.02021277,178.918367 C0.44893617,180.489796 0.44893617,182.959184 2.02021277,184.530612 C2.69361702,185.204082 3.81595745,185.653061 4.71382979,185.653061 C5.61170213,185.653061 6.73404255,185.204082 7.40744681,184.530612 L18.8553191,173.306122 L32.9968085,186.326531 C33.6702128,187 34.7925532,187.44898 35.6904255,187.44898 C36.1393617,187.44898 36.812766,187.22449 37.2617021,187 L48.2606383,182.061224 C48.9340426,181.836735 49.3829787,181.387755 49.8319149,180.714286 L51.1787234,181.612245 C51.8521277,182.061224 52.5255319,182.285714 53.1989362,182.285714 C53.8723404,182.285714 54.3212766,182.061224 54.9946809,181.836735 L60.606383,178.918367 C61.5042553,178.469388 62.1776596,177.795918 62.4021277,176.897959 L64.8712766,171.061224 C65.0957447,170.612245 65.0957447,170.163265 65.0957447,169.489796 L75.1968085,161.632653 C75.8702128,161.183673 76.3191489,160.510204 76.543617,159.836735 L82.6042553,156.469388 C84.1755319,155.571429 85.0734043,153.55102 84.4,151.755102 L87.093617,152.428571 L87.093617,157.142857 L44.2202128,207.428571 C42.8734043,209 43.0978723,211.469388 44.6691489,213.040816 C45.3425532,213.714286 46.2404255,213.938776 47.1382979,213.938776 C48.2606383,213.938776 49.3829787,213.489796 50.056383,212.591837 L54.7702128,206.979592 L56.1170213,208.77551 C56.5659574,209.44898 57.0148936,209.673469 57.6882979,210.122449 L63.7489362,212.591837 L63.9734043,214.612245 C64.1978723,216.632653 65.993617,217.979592 67.7893617,217.979592 C68.0138298,217.979592 68.2382979,217.979592 68.462766,217.979592 C70.7074468,217.755102 72.0542553,215.734694 71.8297872,213.489796 L71.156383,209.22449 C70.9319149,207.877551 70.0340426,206.755102 68.687234,206.081633 L61.5042553,203.163265 L59.7085106,200.918367 L72.7276596,185.653061 L77.2170213,199.795918 C77.8904255,201.816327 80.1351064,202.938776 82.1553191,202.265306 C84.1755319,201.591837 85.2978723,199.346939 84.6244681,197.326531 L78.5638298,178.693878 L93.8276596,160.734694 C93.8276596,160.734694 93.8276596,160.734694 93.8276596,160.734694 C94.0521277,160.510204 94.0521277,160.285714 94.2765957,160.061224 C94.2765957,160.061224 94.2765957,159.836735 94.5010638,159.836735 C94.5010638,159.612245 94.7255319,159.612245 94.7255319,159.387755 C94.7255319,159.387755 94.7255319,159.163265 94.7255319,159.163265 C94.7255319,158.938776 94.7255319,158.938776 94.7255319,158.714286 C94.7255319,158.714286 94.7255319,158.489796 94.7255319,158.489796 C94.7255319,158.489796 94.7255319,158.265306 94.7255319,158.265306 L94.7255319,149.061224 C94.7255319,147.265306 93.3787234,145.693878 91.5829787,145.244898 L76.543617,141.877551 L76.543617,135.816327 L94.5010638,127.959184 L112.458511,140.081633 L116.947872,161.632653 L105.948936,191.938776 C105.5,192.836735 105.724468,193.959184 105.948936,194.857143 L114.703191,215.734694 C115.376596,217.306122 116.723404,218.204082 118.294681,218.204082 C118.743617,218.204082 119.417021,218.204082 119.865957,217.979592 C121.88617,217.081633 122.784043,214.836735 121.88617,212.816327 L113.805319,193.285714 L124.579787,163.428571 C124.804255,162.755102 124.804255,162.081633 124.804255,161.183673 L120.539362,141.204082 L133.334043,139.408163 C134.231915,139.183673 134.905319,138.959184 135.578723,138.285714 L152.638298,122.122449 L157.801064,120.77551 C158.698936,120.55102 159.37234,120.102041 159.821277,119.428571 C159.821277,119.428571 159.821277,119.204082 160.045745,119.204082 C160.045745,119.204082 160.270213,118.979592 160.270213,118.979592 L165.208511,110.44898 C166.555319,109.102041 166.555319,107.979592 166.330851,107.081633 Z M152.638298,65.5510204 L157.12766,74.3061224 L141.190426,81.2653061 C141.86383,80.5918367 142.312766,79.4693878 142.088298,78.3469388 L141.639362,71.6122449 L152.638298,65.5510204 Z M136.476596,52.755102 L142.761702,56.5714286 L144.332979,59.9387755 L137.598936,63.5306122 L132.660638,55.6734694 L136.476596,52.755102 Z M37.037234,178.469388 L21.5489362,164.102041 L25.8138298,156.469388 L37.037234,171.510204 C37.2617021,171.959184 37.7106383,172.183673 38.1595745,172.408163 L43.0978723,175.55102 L37.037234,178.469388 Z M58.137234,167.693878 L56.3414894,172.183673 L54.0968085,173.306122 L43.0978723,166.346939 L26.262766,143.673469 L27.8340426,140.081633 L34.1191489,137.836735 L35.4659574,142.326531 C35.6904255,143 35.9148936,143.44898 36.3638298,143.897959 L58.137234,167.693878 C58.137234,167.469388 58.137234,167.693878 58.137234,167.693878 Z M67.5648936,157.591837 L63.0755319,161.183673 L42.8734043,139.183673 L39.9553191,129.081633 L47.362766,123.693878 L67.7893617,156.918367 C67.7893617,156.918367 67.5648936,157.367347 67.5648936,157.591837 Z M71.8297872,129.306122 C70.4829787,129.979592 69.3606383,131.326531 69.3606383,132.897959 L69.3606383,144.122449 L55.443617,121.673469 L60.3819149,116.061224 L65.0957447,116.061224 L71.8297872,129.306122 Z M78.1148936,149.959184 L74.2989362,152.204082 L72.0542553,148.612245 C72.2787234,148.612245 72.2787234,148.836735 72.5031915,148.836735 L78.1148936,149.959184 Z M131.987234,131.326531 L117.621277,133.346939 L97.8680851,119.877551 C96.7457447,119.204082 95.3989362,118.979592 94.0521277,119.428571 L79.237234,125.938776 L73.4010638,114.714286 L81.0329787,105.734694 C81.4819149,105.061224 81.9308511,104.387755 81.9308511,103.714286 C82.3797872,100.346939 82.3797872,89.122449 82.6042553,85.3061224 L98.7659574,58.8163265 L113.580851,52.755102 L122.559574,54.3265306 L134.007447,72.2857143 L134.231915,75.877551 L126.151064,79.244898 L116.723404,71.6122449 C115.152128,70.4897959 113.131915,70.4897959 111.560638,71.8367347 C110.21383,73.1836735 109.764894,75.2040816 110.887234,77 L112.682979,79.6938776 L111.785106,88.6734694 L106.397872,96.9795918 C105.275532,98.7755102 105.724468,101.244898 107.520213,102.367347 C109.315957,103.489796 111.785106,103.040816 112.907447,101.244898 L114.703191,98.5510204 C115.152128,99 115.376596,99.2244898 116.05,99.4489796 C116.498936,99.6734694 116.947872,99.6734694 117.396809,99.6734694 L122.559574,110.673469 C123.232979,112.020408 124.579787,112.918367 126.151064,112.918367 C126.6,112.918367 127.048936,112.918367 127.497872,112.693878 L129.518085,112.020408 L132.660638,121.44898 C133.334043,123.244898 135.129787,124.367347 137.15,124.142857 L140.965957,123.469388 L131.987234,131.326531 Z M126.375532,87.5510204 L119.865957,90.4693878 L119.641489,89.3469388 L120.090426,84.4081633 L123.008511,86.877551 C123.906383,87.5510204 125.028723,88 126.375532,87.5510204 Z M155.107447,112.918367 L138.496809,115.836735 L136.925532,111.346939 L157.352128,102.816327 L158.25,107.306122 L155.107447,112.918367 Z M127.946809,104.163265 L125.47766,98.7755102 L157.12766,84.6326531 L160.494681,93.1632653 L127.946809,104.163265 Z"/>
    <path d="M207.632979,83.0612245 L187.430851,71.8367347 L202.021277,44 C202.694681,42.6530612 202.694681,41.0816327 201.796809,39.7346939 C200.898936,38.3877551 199.32766,37.9387755 197.980851,38.1632653 L168.351064,42.4285714 L173.064894,6.73469388 C173.289362,4.93877551 172.391489,3.36734694 170.820213,2.69387755 C169.248936,1.79591837 167.453191,2.24489796 166.106383,3.36734694 L141.86383,26.0408163 L126.6,5.3877551 C125.702128,4.04081633 123.906383,3.59183673 122.335106,3.81632653 C120.76383,4.26530612 119.641489,5.3877551 119.192553,7.18367347 L114.703191,34.7959184 C114.254255,37.0408163 115.825532,39.0612245 118.070213,39.5102041 C120.314894,39.9591837 122.335106,38.3877551 122.784043,36.1428571 L125.702128,17.9591837 L138.047872,34.5714286 C138.721277,35.4693878 139.843617,36.1428571 140.965957,36.1428571 C142.088298,36.1428571 143.210638,35.9183673 144.108511,35.0204082 L163.412766,16.8367347 L159.37234,46.4693878 C159.147872,47.8163265 159.596809,48.9387755 160.494681,49.8367347 C161.392553,50.7346939 162.739362,51.1836735 163.861702,50.9591837 L191.02234,47.1428571 L178.22766,71.3877551 C177.105319,73.4081633 178.003191,75.6530612 179.798936,76.7755102 L197.531915,86.6530612 L178.003191,98.7755102 C176.431915,99.6734694 175.758511,101.693878 176.431915,103.489796 L184.288298,125.040816 L167.004255,121.22449 C164.759574,120.77551 162.739362,122.122449 162.065957,124.142857 C161.617021,126.387755 162.96383,128.408163 164.984043,129.081633 L189.226596,134.918367 C189.451064,134.918367 189.9,134.918367 190.124468,134.918367 C191.246809,134.918367 192.369149,134.469388 193.042553,133.571429 C193.940426,132.44898 194.389362,130.877551 193.940426,129.530612 L184.737234,103.938776 L207.408511,90.0204082 C208.530851,89.3469388 209.428723,88 209.428723,86.4285714 C209.653191,85.0816327 208.755319,83.7346939 207.632979,83.0612245 Z"/>
  </g>
</svg>
